dist/svg/u1F49E.svg

<?xml version="1.0" encoding="UTF-8"?><svg id="a" xmlns="http://www.w3.org/2000/svg" viewBox="0 0 40 40"><g><path d="M21.461,29.066c-6.504,0-11.896-3.75-12.982-8.68-.131,.593-.212,1.2-.212,1.823,0,5.801,5.907,10.503,13.194,10.503s13.194-4.702,13.194-10.503c0-.623-.081-1.23-.212-1.823-1.086,4.93-6.478,8.68-12.982,8.68Z" fill="#fdaeb3"/><path d="M31.333,11.447c-1.43-3.575-6.612-6.038-12.649-5.723-5.092,.266-9.367,2.436-11.214,5.331,2.489-1.987,6.394-3.383,10.849-3.615,5.655-.295,10.618,1.366,13.014,4.007Z" fill="#fdaeb3"/><path d="M27.524,16.546c.456,.301,1.045,.301,1.502,0,1.448-.957,4.605-3.244,5.964-5.803,1.793-3.376-.313-6.743-3.094-6.743-1.586,0-2.54,.829-3.068,1.541-.278,.375-.828,.375-1.106,0-.528-.712-1.482-1.541-3.068-1.541-2.782,0-4.887,3.367-3.094,6.743,1.359,2.559,4.516,4.846,5.964,5.803Z" fill="#d12030"/><path d="M14.375,35.658c.69,.456,1.582,.456,2.272,0,2.192-1.448,6.969-4.908,9.025-8.78,2.713-5.108-.473-10.204-4.682-10.204-2.4,0-3.844,1.254-4.642,2.332-.421,.568-1.252,.568-1.673,0-.798-1.078-2.242-2.332-4.642-2.332-4.209,0-7.395,5.095-4.682,10.204,2.056,3.872,6.833,7.332,9.025,8.78Z" fill="#ef4452"/></g><rect width="40" height="40" fill="none"/></svg>

<svg id="Layer_1" data-name="Layer 1" xmlns="http://www.w3.org/2000/svg" viewBox="0 0 40 40"><defs><style>.cls-1{fill:#fdaeb3;}.cls-2{fill:#d12030;}.cls-3{fill:#ef4452;}.cls-4{fill:none;}</style></defs><path class="cls-1" d="M21.461,29.066c-6.5,0-11.9-3.75-12.983-8.68a8.49,8.49,0,0,0-.211,1.822c0,5.8,5.907,10.5,13.194,10.5s13.194-4.7,13.194-10.5a8.49,8.49,0,0,0-.212-1.822C33.357,25.316,27.965,29.066,21.461,29.066Z"/><path class="cls-1" d="M31.333,11.447C29.9,7.872,24.721,5.409,18.684,5.724,13.592,5.989,9.317,8.16,7.47,11.055A19.358,19.358,0,0,1,18.319,7.439C23.974,7.144,28.938,8.806,31.333,11.447Z"/><path class="cls-2" d="M27.524,16.546a1.362,1.362,0,0,0,1.5,0c1.448-.957,4.605-3.244,5.964-5.8C36.783,7.367,34.677,4,31.9,4a3.684,3.684,0,0,0-3.068,1.541.684.684,0,0,1-1.106,0A3.684,3.684,0,0,0,24.655,4c-2.782,0-4.887,3.367-3.1,6.743C22.919,13.3,26.076,15.589,27.524,16.546Z"/><path class="cls-3" d="M14.375,35.658a2.059,2.059,0,0,0,2.273,0c2.192-1.448,6.968-4.908,9.024-8.78,2.713-5.109-.473-10.2-4.682-10.2a5.573,5.573,0,0,0-4.642,2.332,1.034,1.034,0,0,1-1.673,0,5.573,5.573,0,0,0-4.642-2.332c-4.209,0-7.395,5.095-4.682,10.2C7.407,30.75,12.184,34.21,14.375,35.658Z"/><rect class="cls-4" width="40" height="40"/></svg>
